dist/svgs/team-location.svg

<svg xmlns="http://www.w3.org/2000/svg" viewBox="0 0 512 512"><path d="M488 482q3 10 0 19-3 5-8.5 8t-10.5 3H42q-5 0-10.5-2.5T23 503q-2-5-2.5-10.5T23 482l64-128q6-13 19-13l13 43-43 85h359l-43-85 13-43q12 0 19 13zM255 235q-27 0-45.5-18.5T191 171q0-28 18.5-46t45.5-18q28 0 46 18t18 46q0 27-18 45.5T255 235zm0-235q31 0 62 11.5T372 45t39 54 15 72q0 24-10.5 51.5t-26.5 55-35 53-36 46-30.5 34.5-17.5 18q-6 6-15 6-8 0-14-6-4-4-17.5-18t-31-34.5-36.5-46-34.5-53-26-54.5T85 171q0-40 15-72t39-54 54.5-33.5T255 0zm233 482q3 10 0 19-3 5-8.5 8t-10.5 3H42q-5 0-10.5-2.5T23 503q-2-5-2.5-10.5T23 482l64-128q6-13 19-13l13 43-43 85h359l-43-85 13-43q12 0 19 13zM255 235q-27 0-45.5-18.5T191 171q0-28 18.5-46t45.5-18q28 0 46 18t18 46q0 27-18 45.5T255 235zm0-235q31 0 62 11.5T372 45t39 54 15 72q0 24-10.5 51.5t-26.5 55-35 53-36 46-30.5 34.5-17.5 18q-6 6-15 6-8 0-14-6-4-4-17.5-18t-31-34.5-36.5-46-34.5-53-26-54.5T85 171q0-40 15-72t39-54 54.5-33.5T255 0z"/></svg>

<?xml version="1.0" encoding="UTF-8" standalone="no"?><svg   xmlns:svg="http://www.w3.org/2000/svg"   xmlns="http://www.w3.org/2000/svg"   version="1.1"   width="512"   height="512"   viewBox="0 0 512 512">  <path     d="M488 482Q491 492 488 501Q485 506 479.5 509T469 512H42Q37 512 31.5 509.5T23 503Q21 498 20.5 492.5T23 482L87 354Q93 341 106 341L119 384L76 469H435L392 384L405 341Q417 341 424 354zM255 235Q228 235 209.5 216.5T191 171Q191 143 209.5 125T255 107Q283 107 301 125T319 171Q319 198 301 216.5T255 235zM255 0Q286 0 317 11.5T372 45T411 99T426 171Q426 195 415.5 222.5T389 277.5T354 330.5T318 376.5T287.5 411T270 429Q264 435 255 435Q247 435 241 429Q237 425 223.5 411T192.5 376.5T156 330.5T121.5 277.5T95.5 223T85 171Q85 131 100 99T139 45T193.5 11.5T255 0zM488 482Q491 492 488 501Q485 506 479.5 509T469 512H42Q37 512 31.5 509.5T23 503Q21 498 20.5 492.5T23 482L87 354Q93 341 106 341L119 384L76 469H435L392 384L405 341Q417 341 424 354zM255 235Q228 235 209.5 216.5T191 171Q191 143 209.5 125T255 107Q283 107 301 125T319 171Q319 198 301 216.5T255 235zM255 0Q286 0 317 11.5T372 45T411 99T426 171Q426 195 415.5 222.5T389 277.5T354 330.5T318 376.5T287.5 411T270 429Q264 435 255 435Q247 435 241 429Q237 425 223.5 411T192.5 376.5T156 330.5T121.5 277.5T95.5 223T85 171Q85 131 100 99T139 45T193.5 11.5T255 0z"     id="team-location" /></svg>
